X: 227
T: Seymour's Reel
%R: reel
B: "Twenty Four Country Dances for the Year 1793", Preston & Son, eds. p.94
F: http://www.vwml.org/browse/browse-collections-dance-tune-books/browse-prestons1793# 2014-8-7
Z: 2014 John Chambers <jc:trillian.mit.edu>
M: C
L: 1/8
K: G
|:\
G2BG | BddB | c2ec eggB | G2BG Bcdg |\
edcB A2G2 :| g2bg afed | edef gdBG |
g2bg agfd | edef g2ga | bagf gfed |\
edef gdBG | cBcd efge | dcBA G2G2 |]
% = = = = = = = = = = = = = = = = = = = = = = = = =
%%begintext align
%% Lead down 1 Cu: & come up to proper places
%% on the outside .| Hands 4 quite round :|
%% Cross over 1 Cu: & turn :|.
%% Right & left :|:
%%endtext
% = = = = = = = = = = = = = = = = = = = = = = = = =

%%sep 1 1 500
%%sep 1 1 500
